X:1
T:James Gibb editions
T:All'apparir dell'alba - Antonelli da Rimini
%%score [ 1 2 3 ]
L:1/8
Q:1/4=108
M:2/2
K:C
V:1 treble-8 nm="Tenor I" snm="T I"
V:2 treble-8 nm="Tenor II" snm="T II"
V:3 bass nm="Bass" snm="B"
V:1
"^All' apparir dell' alba""^Cornelio Antonelli da Rimini\n( C16th)" z2 d2 d2 d2 | e2 e2 f4 | %2
w: All' ap- pa-|rir dell' al-|
w: ||
w: E la- scia|pur ve- nir|
 e4 c2 d2 | B4 ^c4 | z2 A2 A4 | c4 c2 c2 | B4 e4 |[M:2/2][K:treble-8] e2 e2 d4 | (d6 d2) | %9
w: ba la mia|di- va,|di- cea:|"Fil- li ben|mio, fìl-|li ben mio|strin- gi-|
w: |||||||
w: la va- ga~~au-|ro- ra.|Di- cea:|"non ti par-|tir ba-|cia- mi~~e ta-|ci, *|
 d2 (d3 ^c/B/ c2) | d4 z2 e2- | e2 B2 B4 | c4 B4 | z2 e2 e2 e2 | d2 c2 B4 | ^c8 || z2 c3 d d2 | %17
w: m'e ta\- * * *|ci, strin\-|* gi- m'e|ta- ci.|E men- tre|l'au- ra spi-|ra,||
w: |||||||dam- mi con|
w: e ta\- * * *|ci, ba\-|* cia- mi~~e|ta- ci.|E men- tre~~il|sol ris- plen-|de,||
 e2 e2 d4- | d2 e2 d2 d2 | d2 d2 d3 c | B4 ^c4 :| %21
w: ||||
w: la tua boc\-|* ca mil- le,|mil- le, mil- le|ba- ci."|
w: ||||
V:2
 z2 B2 B2 B2 | c2 c2 A4 | c4 A2 A2 | (A2 ^G2) A4 | z2 ^F2 F4 | A4 A2 A2 | ^G4 =G4 | %7
w: All' ap- pa-|rir dell' al-|ba la mia|di\- * va,|di- cea:|"Fil- li ben|mio, fìl-|
w: |||||||
w: E la- scia|pur ve- nir|la va- ga~~au-|ro\- * ra.|Di- cea:|"non ti par-|tir ba-|
[M:2/2][K:treble-8] c2 c2 B4 | (B6 A2) | B4 G4 | A4 z2 B2- | B2 ^F2 G4 | A4 ^G4 | z2 c2 c2 B2 | %14
w: li ben mio|strin- gi-|m'e ta-|ci, strin\-|* gi- m'e|ta- ci.|E men- tre|
w: |||||||
w: cia- mi~~e ta-|ci, *|e ta-|ci, ba\-|* cia- mi~~e|ta- ci.|E men- tre~~il|
 B2 A2 (A2 ^G2) | A8 || z2 A3 B B2 | c2 c2 B4- | B2 c2 B2 B2 | B4 A4 | (A2 ^G2) A4 :| %21
w: l'au- ra spi\- *|ra,||||||
w: ||dam- mi con|la tua boc\-|* ca mil- le,|mil- le|ba\- * ci."|
w: sol ris- plen\- *|de,||||||
V:3
 z2 G,2 G,2 G,2 | C,2 C,2 D,4 | C,4 F,2 D,2 | E,4 A,,4 | z2 D,2 D,4 | A,,4 A,,2 A,,2 | E,4 E,4 | %7
w: All' ap- pa-|rir dell' al-|ba la mia|di- va,|di- cea:|"Fil- li ben|mio, fìl-|
w: |||||||
w: E la- scia|pur ve- nir|la va- ga~~au-|ro- ra.|Di- cea:|"non ti par-|tir ba-|
[M:2/2] C,2 C,2 G,4 | (G,6 ^F,2) | G,4 E,4 | D,4 z2 E,2- | E,2 ^D,2 E,4 | A,,4 E,4 | %13
w: li ben mio|strin- gi-|m'e ta-|ci, strin\-|* gi- m'e|ta- ci.|
w: ||||||
w: cia- mi~~e ta-|ci, *|e ta-|ci, ba\-|* cia- mi~~e|ta- ci.|
 z2 A,2 A,2 E,2 | G,2 A,2 E,4 | A,,8 || z2 F,3 G, G,2 | C,2 C,2 G,4- | G,2 C,2 G,2 G,2 | %19
w: E men- tre|l'au- ra spi-|ra,||||
w: |||dam- mi con|la tua boc\-|* ca mil- le,|
w: E men- tre~~il|sol ris- plen-|de,||||
 G,4 (D,2 A,,2) | E,4 A,,4 :| %21
w: ||
w: mil- le *|ba- ci."|
w: ||

